X: 10071
T: SCOTS WHA HAE WI' WALLACE BLED
Q: "Very Slow"
%R: air, strathspey
B: "Edinburgh Repository of Music" v.1 p.7 #1
F: http://digital.nls.uk/special-collections-of-printed-music/pageturner.cfm?id=87776133
Z: 2015 John Chambers <jc:trillian.mit.edu>
M: C
L: 1/8
K: D
|:\
A2 A>F A2 d>c | B2 B>A B>cde |\
f2 e>d d>efe | d<BB>A A2z2 :|
|:\
f2 f>e f>g a>f | e2 e>d e>fgb |\
a<f e>d d>ef>e | d<B B>A A2 z2 :|

%%sep 2 1 500
%%sep 1 1 500

